src/assets/svg/pause.svg

<svg aria-hidden="true" focusable="false" data-prefix="fas" data-icon="pause-circle" role="img" xmlns="http://www.w3.org/2000/svg" viewBox="0 0 512 512" class="svg-inline--fa fa-pause-circle fa-w-16 fa-3x"><path fill="currentColor" d="M256 8C119 8 8 119 8 256s111 248 248 248 248-111 248-248S393 8 256 8zm-16 328c0 8.8-7.2 16-16 16h-48c-8.8 0-16-7.2-16-16V176c0-8.8 7.2-16 16-16h48c8.8 0 16 7.2 16 16v160zm112 0c0 8.8-7.2 16-16 16h-48c-8.8 0-16-7.2-16-16V176c0-8.8 7.2-16 16-16h48c8.8 0 16 7.2 16 16v160z" class=""></path></svg>

<?xml version="1.0" encoding="UTF-8" standalone="no"?><!-- Generator: Gravit.io --><svg xmlns="http://www.w3.org/2000/svg" xmlns:xlink="http://www.w3.org/1999/xlink" style="isolation:isolate" viewBox="0 0 512 512" width="512pt" height="512pt"><defs><clipPath id="_clipPath_EZfxJtHlhLu2GlhE2afjV3TKTwTwC82R"><rect width="512" height="512"/></clipPath></defs><g clip-path="url(#_clipPath_EZfxJtHlhLu2GlhE2afjV3TKTwTwC82R)"><path d=" M 256 8 C 119 8 8 119 8 256 C 8 393 119 504 256 504 C 393 504 504 393 504 256 C 504 119 393 8 256 8 Z  M 240 336 C 240 344.8 232.8 352 224 352 L 176 352 C 167.2 352 160 344.8 160 336 L 160 176 C 160 167.2 167.2 160 176 160 L 224 160 C 232.8 160 240 167.2 240 176 L 240 336 L 240 336 Z  M 352 336 C 352 344.8 344.8 352 336 352 L 288 352 C 279.2 352 272 344.8 272 336 L 272 176 C 272 167.2 279.2 160 288 160 L 336 160 C 344.8 160 352 167.2 352 176 L 352 336 L 352 336 Z " fill="rgb(255,255,255)"/></g></svg>
